!!!OTL: YÅanjing xiaochang
!!!ARE: Asia, China,ˇAnhui Suxian
!! III, 522
!!!SCT: C2037
!!!YEM: Copyright 1995, estate of Helmut Schaffrath.
**kern
*ICvox
*Ivox
*M2/4
*k[]
*C:
{8.cc
16a
4g
=1
8.cc
16a
4g
=2
4cc
8cc
8a
=3
8g
16g
16a
4cc}
=4
{8.cc
16dd
8ee
8ee
=5
8dd
8ee
4cc
=6
8dd
8cc
8a
8g
=7
8a
16cc
16a
4g}
=8
{8g
16g
16a
4cc
=9
16cc
16dd
8ee
4dd}
=10
{8dd
8cc
8a
8g
=11
8a
16cc
16a
4g}
==
!!!AGN: Xiaodiao
!!!AMT: simple duple
!!!AIN: vox
!!!EED: Helmut Schaffrath
!!!EEV: 1.0
*-
